X:1
T:Title
%%score { ( 1 4 ) | ( 2 3 ) }
L:1/8
Q:1/4=100
M:6/8
K:C
V:1 treble nm="Grand Piano"
V:4 treble 
V:2 bass 
V:3 bass 
V:1
 [CE]2 [B,D] [CE]2 [DF] | [EG]3 [Ec]3 | [Ge]2 [Fd] [Ec]2 [FA] | [EG]6 | G2 D DE[G,DF] | %5
w: I.~H.~Meredith * * *|||||
 [G,CE]3 [Ec]3 | B2 A G2 ^F | [B,G]6 | [CE]2 [B,D] [CE]2 [DF] | [EG]3 [Ec]3 | %10
w: |||||
 [Ge]2 [Fd] [Ec]2 [FA] | [EG]6 | [FA]2 [FA] [GB]2 [GB] | [Gc]3 [Af]3 | e2 d c2 B | [Ec]6 | %16
w: ||||||
 E2 E E[B,D]E | F3 F2 F | G2 G G^FG | A3- A2 [FA] | [GB]3 [GB]3 | [Gc]3 [Gc]2 [Gc] | ddd dc[Gd] | %23
w: |||||||
 [Ge]6 | e3 d3 | c3 G3 | [Gc]3 [^GB]3 | A3 [Af]3 | [Ge]6 | d6 | [Ec]6 |] %31
w: ||||||||
V:2
 [C,G,]2 [G,,G,] [C,G,]2 [C,G,] | [C,C]3 [C,C]3 | [C,C]2 [C,G,] [C,A,]2 [C,B,] | [C,C]6 | %4
 [G,B,D]2 [G,B,] B,CG,, | C,3 [C,G,]3 | [D,G,D]2 [D,CD] [D,B,D]2 [D,A,C] | [G,,G,]6 | %8
 [C,G,]2 [G,,G,] [C,G,]2 [C,G,] | [C,C]3 [C,C]3 | [C,C]2 [C,G,] [C,A,]2 [C,B,] | [C,C]6 | %12
 [F,C]2 [F,C] [F,D]2 [F,D] | [E,C]3 [F,C]3 | [G,CG]2 [G,FG] [G,EG]2 [G,DF] | [C,C]6 | %16
 [C,G,C]2 [C,G,C] [C,G,C][G,,G,][C,G,C] | [D,G,B,]3 [D,G,B,]2 [D,G,B,] | %18
 [E,G,C]2 [E,G,C] [E,G,C]2 [E,G,C] | [F,C]3- [F,C]2 [D,D] | [G,D]3 [F,D]3 | [E,C]3 [E,C]2 [E,C] | %22
 [G,B,G][G,B,G][G,B,G] G-[E,CG][K:bass][D,B,] | [C,C]6 | [CG]3 [G,B,F]3 | [A,CE]3 [E,C]3 | %26
 [E,C]3 [E,D]3 | [F,C]3 [D,D]3 | [G,C]3 G,3 | F3- [G,F]3 | [C,G,C]6 |] %31
V:3
 x6 | x6 | x6 | x6 | z3 .G,3 | x6 | x6 | x6 | x6 | x6 | x6 | x6 | x6 | x6 | x6 | x6 | x6 | x6 | %18
 x6 | x6 | x6 | x6 | z3 .[F,B,]3[K:bass] | x6 | x6 | x6 | x6 | x6 | x6 | [G,A,]3 z3 | x6 |] %31
V:4
 x6 | x6 | x6 | x6 | x6 | x6 | x6 | x6 | x6 | x6 | x6 | x6 | x6 | x6 | x6 | x6 | x6 | x6 | x6 | %19
 x6 | x6 | x6 | x6 | x6 | x6 | x6 | x6 | x6 | z3 B,3 | z3 B,3 | x6 |] %31

